src/svg/size.svg

<svg width="21" height="20" viewBox="0 0 21 20" fill="none" xmlns="http://www.w3.org/2000/svg">
<path d="M15.8274 5.8479L6.34873 15.3267L8.7426 15.327V17H3.5V11.7574H5.17092L5.17264 14.1522L14.6513 4.67342L12.2574 4.67403V3H17.5V8.24273H15.8217L15.8274 5.8479Z" fill="#9499A8"/>
</svg>

<svg width="21" height="20" fill="none" xmlns="http://www.w3.org/2000/svg">
  <path d="M15.827 5.848 6.35 15.327h2.394V17H3.5v-5.243h1.67l.003 2.395 9.478-9.479-2.394.001V3H17.5v5.243h-1.678l.005-2.395Z" fill="#9499A8"/>
</svg>
